TCanvas/legend.svg

<svg xmlns="http://www.w3.org/2000/svg" viewBox="0 0 1200 800" preserveAspectRatio="none" width="1200" height="800">
 <defs>
  <pattern id="pat_3003_416" patternUnits="userSpaceOnUse" width="4" height="4">
   <path d="M2,1h1v1h-1zM0,3h1v1h-1z" style="fill: green;"></path>
  </pattern>
 </defs>
 <path d="M0,0H1200V800H0Z" style="fill: white;"></path>
 <g>
  <g transform="translate(120,80)">
   <path d="M0,0H960V640H0Z" style="fill: white; stroke: black; stroke-width: 1;"></path>
   <svg x="0" y="0" overflow="hidden" width="960" height="640" viewBox="0 0 960 640">
    <g>
     <path d="M0,640h274v-1h4v1h24v-1h5v1h5v-1h5v-2h5v1h9v-4h5v-2h5v1h5v-10h4v-1h5v2h5v-18h5v2h5v-18h4v-7h5v-23h5v-14h5v-16h5v-18h4v-16h5v-38h5v-33h5v-13h5v-48h4v-36h5v-48h5v-16h5v-49h5v-22h4v-45h5v-30h5v-15h5v-10h5v-27h4v-9h5v-27h5v18h5v-14h5v31h4v5h5v26h5v40h5v49h5v20h4v30h5v32h5v27h5v29h5v34h4v49h5v33h5v9h5v42h5v18h4v25h5v20h5v14h5v14h5v13h9v18h5v5h5v3h5v4h4v7h5v2h5v3h5v4h5v-2h4v1h5v-2h5v2h5v1h5v-1h4v1h10v-1h5v1h283L960,643H0Z" style="stroke-linejoin: miter; stroke: #000099; stroke-width: 1; fill: url(#pat_3003_416);"></path>
    </g>
    <g>
     <path d="M0,612.89C0.9,613.68,7.9,619.77,9.6,621.36S17.44,629.36,19.2,630.95S25.68,639.18,28.8,638.69S36.98,629.52,38.4,627.93S46.55,618.77,48,617.18S56.04,608.47,57.6,606.87S65.46,599.03,67.2,597.44S74.77,590.84,76.8,589.3S83.98,584.2,86.4,582.82S93.14,579.35,96,578.36S102.41,576.36,105.6,576.2S112.03,576.24,115.2,576.53S122.13,578.28,124.8,579.47S132.28,583.55,134.4,585.06S142.36,591.62,144,593.22S152.3,602.21,153.6,603.79S162.13,614.97,163.2,616.47S170.39,629.54,172.8,630.92S179.8,634.57,182.4,633.32S191.2,618.18,192,616.79S200.79,601.47,201.6,600.08S210.33,585.24,211.2,583.82S219.8,570.16,220.8,568.68S229.17,556.88,230.4,555.33S238.36,546.02,240,544.42S247.31,538.01,249.6,536.57S256,532.43,259.2,532.34S265.6,532.12,268.8,532.21S276.26,535.07,278.4,536.58S286.7,544.13,288,545.71S296.79,558.36,297.6,559.75S306.66,577.54,307.2,578.74S316.42,601.5,316.8,602.54S324.31,629.38,326.4,630.91S335.6,617.62,336,616.56S345.4,581.14,345.6,580.37S355.03,541.91,355.2,541.19S364.64,500.43,364.8,499.73S374.25,457.52,374.4,456.84S383.85,414.09,384,413.41S393.44,371.05,393.6,370.36S403.03,329.36,403.2,328.64S412.61,289.95,412.8,289.19S422.17,253.74,422.4,252.91S431.7,221.56,432,220.62S441.18,194.18,441.6,193.1S450.56,172.27,451.2,170.99S459.67,156.33,460.8,154.8S465.6,144.93,470.4,144.93S484.8,144.93,489.6,144.93S498.07,153.27,499.2,154.8S508.16,169.7,508.8,170.99S517.98,192.02,518.4,193.1S527.7,219.69,528,220.62S537.37,252.07,537.6,252.91S547.01,288.43,547.2,289.19S556.63,327.93,556.8,328.64S566.24,369.67,566.4,370.36S575.85,412.73,576,413.41S585.45,456.17,585.6,456.84S595.04,499.04,595.2,499.73S604.63,540.46,604.8,541.19S614.2,579.61,614.4,580.37S623.6,615.49,624,616.56S631.51,632.43,633.6,630.91S642.82,603.58,643.2,602.54S652.26,579.93,652.8,578.74S661.59,561.14,662.4,559.75S670.7,547.28,672,545.71S679.46,538.08,681.6,536.58S688,532.3,691.2,532.21S697.6,532.25,700.8,532.34S708.11,535.13,710.4,536.57S718.36,542.82,720,544.42S728.37,553.77,729.6,555.33S738.2,567.2,739.2,568.68S747.93,582.39,748.8,583.82S757.59,598.69,758.4,600.08S767.2,615.4,768,616.79S775,632.07,777.6,633.32S784.79,632.31,787.2,630.92S795.73,617.98,796.8,616.47S805.1,605.36,806.4,603.79S814.36,594.82,816,593.22S823.48,586.58,825.6,585.06S832.53,580.66,835.2,579.47S841.63,576.81,844.8,576.53S851.21,576.04,854.4,576.2S861.14,577.38,864,578.36S871.18,581.45,873.6,582.82S881.17,587.75,883.2,589.3S891.06,595.85,892.8,597.44S900.84,605.27,902.4,606.87S910.55,615.59,912,617.18S920.18,626.34,921.6,627.93S928.08,638.19,931.2,638.69S939.04,632.54,940.8,630.95S948.7,622.96,950.4,621.36S959.1,613.68,960,612.89" style="fill: none; stroke: blue; stroke-width: 4;"></path>
    </g>
    <g>
     <g transform="translate(53,541)">
      <path style="stroke: red; stroke-width: 2; fill: none;" d="M0,0H-48m0,4v-8M0,0H48m0,4v-8"></path>
     </g>
     <g transform="translate(138,493)">
      <path style="stroke: red; stroke-width: 2; fill: none;" d="M0,0H-48m0,4v-8M0,0H48m0,4v-8M0,0V5m4,0h-8M0,0V-5m4,0h-8"></path>
     </g>
     <g transform="translate(224,446)">
      <path style="stroke: red; stroke-width: 2; fill: none;" d="M0,0H-48m0,4v-8M0,0H48m0,4v-8M0,0V10m4,0h-8M0,0V-10m4,0h-8"></path>
     </g>
     <g transform="translate(309,401)">
      <path style="stroke: red; stroke-width: 2; fill: none;" d="M0,0H-48m0,4v-8M0,0H48m0,4v-8M0,0V15m4,0h-8M0,0V-15m4,0h-8"></path>
     </g>
     <g transform="translate(395,359)">
      <path style="stroke: red; stroke-width: 2; fill: none;" d="M0,0H-48m0,4v-8M0,0H48m0,4v-8M0,0V20m4,0h-8M0,0V-20m4,0h-8"></path>
     </g>
     <g transform="translate(480,319)">
      <path style="stroke: red; stroke-width: 2; fill: none;" d="M0,0H-48m0,4v-8M0,0H48m0,4v-8M0,0V25m4,0h-8M0,0V-25m4,0h-8"></path>
     </g>
     <g transform="translate(565,282)">
      <path style="stroke: red; stroke-width: 2; fill: none;" d="M0,0H-48m0,4v-8M0,0H48m0,4v-8M0,0V30m4,0h-8M0,0V-30m4,0h-8"></path>
     </g>
     <g transform="translate(651,250)">
      <path style="stroke: red; stroke-width: 2; fill: none;" d="M0,0H-48m0,4v-8M0,0H48m0,4v-8M0,0V35m4,0h-8M0,0V-35m4,0h-8"></path>
     </g>
     <g transform="translate(736,221)">
      <path style="stroke: red; stroke-width: 2; fill: none;" d="M0,0H-48m0,4v-8M0,0H48m0,4v-8M0,0V40m4,0h-8M0,0V-40m4,0h-8"></path>
     </g>
     <g transform="translate(822,196)">
      <path style="stroke: red; stroke-width: 2; fill: none;" d="M0,0H-48m0,4v-8M0,0H48m0,4v-8M0,0V45m4,0h-8M0,0V-45m4,0h-8"></path>
     </g>
     <g transform="translate(907,175)">
      <path style="stroke: red; stroke-width: 2; fill: none;" d="M0,0H-48m0,4v-8M0,0H48m0,4v-8M0,0V50m4,0h-8M0,0V-50m4,0h-8"></path>
     </g>
     <path d="M48,536v10h10v-10zM133,488v10h10v-10zM218,441v10h10v-10zM304,396v10h10v-10zM389,353v10h10v-10zM475,314v10h10v-10zM560,277v10h10v-10zM646,244v10h10v-10zM731,215v10h10v-10zM817,191v10h10v-10zM902,170v10h10v-10z" style="stroke: cyan; fill: cyan;"></path>
    </g>
   </svg>
   <g>
    <g transform="translate(0,640)">
     <path d="M0,0h960M0,-24v24m24,-12v12m24,-12v12m24,-12v12m24,-24v24m24,-12v12m24,-12v12m24,-12v12m24,-24v24m24,-12v12m24,-12v12m24,-12v12m24,-24v24m24,-12v12m24,-12v12m24,-12v12m24,-24v24m24,-12v12m24,-12v12m24,-12v12m24,-24v24m24,-12v12m24,-12v12m24,-12v12m24,-24v24m24,-12v12m24,-12v12m24,-12v12m24,-24v24m24,-12v12m24,-12v12m24,-12v12m24,-24v24m24,-12v12m24,-12v12m24,-12v12m24,-24v24m24,-12v12m24,-12v12m24,-12v12m24,-24v24" style="stroke: black; stroke-width: 1;"></path>
     <g font-family="Arial" font-size="28" space="preserve" fill="black" text-anchor="middle">
      <text dy=".8em" transform="translate(0,6)">
       -10
      </text>
      <text dy=".8em" transform="translate(96,6)">
       -8
      </text>
      <text dy=".8em" transform="translate(192,6)">
       -6
      </text>
      <text dy=".8em" transform="translate(288,6)">
       -4
      </text>
      <text dy=".8em" transform="translate(384,6)">
       -2
      </text>
      <text dy=".8em" transform="translate(480,6)">
       0
      </text>
      <text dy=".8em" transform="translate(576,6)">
       2
      </text>
      <text dy=".8em" transform="translate(672,6)">
       4
      </text>
      <text dy=".8em" transform="translate(768,6)">
       6
      </text>
      <text dy=".8em" transform="translate(864,6)">
       8
      </text>
      <text dy=".8em" transform="translate(960,6)">
       10
      </text>
     </g>
    </g>
    <g>
     <path d="M0,0v640M36,640h-36m18,-25h-18m18,-25h-18m18,-25h-18m36,-25h-36m18,-25h-18m18,-25h-18m18,-24h-18m36,-25h-36m18,-25h-18m18,-25h-18m18,-25h-18m36,-25h-36m18,-25h-18m18,-25h-18m18,-25h-18m36,-25h-36m18,-25h-18m18,-25h-18m18,-24h-18m36,-25h-36m18,-25h-18m18,-25h-18m18,-25h-18m36,-25h-36m18,-25h-18" style="stroke: black; stroke-width: 1;"></path>
     <g font-family="Arial" font-size="28" space="preserve" fill="black" text-anchor="end">
      <text dy=".4em" transform="translate(-4,640)">
       0
      </text>
      <text dy=".4em" transform="translate(-4,540)">
       200
      </text>
      <text dy=".4em" transform="translate(-4,441)">
       400
      </text>
      <text dy=".4em" transform="translate(-4,341)">
       600
      </text>
      <text dy=".4em" transform="translate(-4,241)">
       800
      </text>
      <text dy=".4em" transform="translate(-4,142)">
       1000
      </text>
      <text dy=".4em" transform="translate(-4,42)">
       1200
      </text>
     </g>
    </g>
   </g>
  </g>
  <g transform="translate(120,80)" font-family="Arial" font-size="15" space="preserve">
   <path d="M0,0H456V160H0Z" style="fill: #f2f2f2; stroke: black; stroke-width: 1;"></path>
   <text fill="black" text-anchor="start" dy=".4em" transform="translate(114,24)">
    The Legend Title
   </text>
   <path d="M14,47v30h86v-30z" style="fill: url(#pat_3003_416); stroke: #000099; stroke-width: 1;"></path>
   <text fill="black" text-anchor="start" dy=".4em" transform="translate(114,62)">
    Histogram filled with random numbers
   </text>
   <path d="M14,99H100" style="stroke: blue; stroke-width: 4;"></path>
   <g transform="translate(114,104) scale(0.442)">
    <text fill="black" font-size="34">
     Function abs(
    </text>
    <g transform="translate(208)">
     <text fill="black" font-size="34" transform="translate(0,-20)">
      sin(x)
     </text>
     <path style="stroke: black; stroke-width: 2; fill: none;" d="M0,-12h82"></path>
     <text fill="black" font-size="34" transform="translate(34,21)">
      x
     </text>
    </g>
    <text fill="black" font-size="34" x="293">
     )
    </text>
   </g>
   <path d="M14,136H100" style="stroke: red; stroke-width: 2;"></path>
   <path d="M57,122V152" style="stroke: red; stroke-width: 2;"></path>
   <path d="M52,131v10h10v-10z" style="stroke: cyan; fill: cyan;"></path>
   <text fill="black" text-anchor="start" dy=".4em" transform="translate(114,137)">
    Graph with error bars
   </text>
  </g>
  <g transform="translate(382,4)" font-family="Arial" font-size="40" space="preserve">
   <text fill="black" text-anchor="middle" dy=".4em" transform="translate(219,25)">
    TLegend Example
   </text>
  </g>
 </g>
</svg>

<svg xmlns="http://www.w3.org/2000/svg" viewBox="0 0 1200 800" preserveAspectRatio="none" width="1200" height="800">
 <defs>
  <pattern id="pat_3003_416" patternUnits="userSpaceOnUse" width="4" height="4">
   <path d="M2,1h1v1h-1zM0,3h1v1h-1z" style="fill: green;"></path>
  </pattern>
 </defs>
 <path d="M0,0H1200V800H0Z" style="fill: white;"></path>
 <g>
  <g transform="translate(120,80)">
   <path d="M0,0H960V640H0Z" style="fill: white; stroke: black; stroke-width: 1;"></path>
   <svg x="0" y="0" overflow="hidden" width="960" height="640" viewBox="0 0 960 640">
    <g>
     <path d="M0,640h274v-1h4v1h24v-1h5v1h5v-1h5v-2h5v1h9v-4h5v-2h5v1h5v-10h4v-1h5v2h5v-18h5v2h5v-18h4v-7h5v-23h5v-14h5v-16h5v-18h4v-16h5v-38h5v-33h5v-13h5v-48h4v-36h5v-48h5v-16h5v-49h5v-22h4v-45h5v-30h5v-15h5v-10h5v-27h4v-9h5v-27h5v18h5v-14h5v31h4v5h5v26h5v40h5v49h5v20h4v30h5v32h5v27h5v29h5v34h4v49h5v33h5v9h5v42h5v18h4v25h5v20h5v14h5v14h5v13h9v18h5v5h5v3h5v4h4v7h5v2h5v3h5v4h5v-2h4v1h5v-2h5v2h5v1h5v-1h4v1h10v-1h5v1h283L960,643H0Z" style="stroke-linejoin: miter; stroke: #000099; stroke-width: 1; fill: url(#pat_3003_416);"></path>
    </g>
    <g>
     <path d="M0,612.89C0.9,613.68,7.9,619.77,9.6,621.36S17.44,629.36,19.2,630.95S25.68,639.18,28.8,638.69S36.98,629.52,38.4,627.93S46.55,618.77,48,617.18S56.04,608.47,57.6,606.87S65.46,599.03,67.2,597.44S74.77,590.84,76.8,589.3S83.98,584.2,86.4,582.82S93.14,579.35,96,578.36S102.41,576.36,105.6,576.2S112.03,576.24,115.2,576.53S122.13,578.28,124.8,579.47S132.28,583.55,134.4,585.06S142.36,591.62,144,593.22S152.3,602.21,153.6,603.79S162.13,614.97,163.2,616.47S170.39,629.54,172.8,630.92S179.8,634.57,182.4,633.32S191.2,618.18,192,616.79S200.79,601.47,201.6,600.08S210.33,585.24,211.2,583.82S219.8,570.16,220.8,568.68S229.17,556.88,230.4,555.33S238.36,546.02,240,544.42S247.31,538.01,249.6,536.57S256,532.43,259.2,532.34S265.6,532.12,268.8,532.21S276.26,535.07,278.4,536.58S286.7,544.13,288,545.71S296.79,558.36,297.6,559.75S306.66,577.54,307.2,578.74S316.42,601.5,316.8,602.54S324.31,629.38,326.4,630.91S335.6,617.62,336,616.56S345.4,581.14,345.6,580.37S355.03,541.91,355.2,541.19S364.64,500.43,364.8,499.73S374.25,457.52,374.4,456.84S383.85,414.09,384,413.41S393.44,371.05,393.6,370.36S403.03,329.36,403.2,328.64S412.61,289.95,412.8,289.19S422.17,253.74,422.4,252.91S431.7,221.56,432,220.62S441.18,194.18,441.6,193.1S450.56,172.27,451.2,170.99S459.67,156.33,460.8,154.8S465.6,144.93,470.4,144.93S484.8,144.93,489.6,144.93S498.07,153.27,499.2,154.8S508.16,169.7,508.8,170.99S517.98,192.02,518.4,193.1S527.7,219.69,528,220.62S537.37,252.07,537.6,252.91S547.01,288.43,547.2,289.19S556.63,327.93,556.8,328.64S566.24,369.67,566.4,370.36S575.85,412.73,576,413.41S585.45,456.17,585.6,456.84S595.04,499.04,595.2,499.73S604.63,540.46,604.8,541.19S614.2,579.61,614.4,580.37S623.6,615.49,624,616.56S631.51,632.43,633.6,630.91S642.82,603.58,643.2,602.54S652.26,579.93,652.8,578.74S661.59,561.14,662.4,559.75S670.7,547.28,672,545.71S679.46,538.08,681.6,536.58S688,532.3,691.2,532.21S697.6,532.25,700.8,532.34S708.11,535.13,710.4,536.57S718.36,542.82,720,544.42S728.37,553.77,729.6,555.33S738.2,567.2,739.2,568.68S747.93,582.39,748.8,583.82S757.59,598.69,758.4,600.08S767.2,615.4,768,616.79S775,632.07,777.6,633.32S784.79,632.31,787.2,630.92S795.73,617.98,796.8,616.47S805.1,605.36,806.4,603.79S814.36,594.82,816,593.22S823.48,586.58,825.6,585.06S832.53,580.66,835.2,579.47S841.63,576.81,844.8,576.53S851.21,576.04,854.4,576.2S861.14,577.38,864,578.36S871.18,581.45,873.6,582.82S881.17,587.75,883.2,589.3S891.06,595.85,892.8,597.44S900.84,605.27,902.4,606.87S910.55,615.59,912,617.18S920.18,626.34,921.6,627.93S928.08,638.19,931.2,638.69S939.04,632.54,940.8,630.95S948.7,622.96,950.4,621.36S959.1,613.68,960,612.89" style="fill: none; stroke: blue; stroke-width: 4;"></path>
    </g>
    <g>
     <g transform="translate(53,541)">
      <path style="stroke: red; stroke-width: 2; fill: none;" d="M0,0H-48m0,4v-8M0,0H48m0,4v-8"></path>
     </g>
     <g transform="translate(138,493)">
      <path style="stroke: red; stroke-width: 2; fill: none;" d="M0,0H-48m0,4v-8M0,0H48m0,4v-8M0,0V5m4,0h-8M0,0V-5m4,0h-8"></path>
     </g>
     <g transform="translate(224,446)">
      <path style="stroke: red; stroke-width: 2; fill: none;" d="M0,0H-48m0,4v-8M0,0H48m0,4v-8M0,0V10m4,0h-8M0,0V-10m4,0h-8"></path>
     </g>
     <g transform="translate(309,401)">
      <path style="stroke: red; stroke-width: 2; fill: none;" d="M0,0H-48m0,4v-8M0,0H48m0,4v-8M0,0V15m4,0h-8M0,0V-15m4,0h-8"></path>
     </g>
     <g transform="translate(395,359)">
      <path style="stroke: red; stroke-width: 2; fill: none;" d="M0,0H-48m0,4v-8M0,0H48m0,4v-8M0,0V20m4,0h-8M0,0V-20m4,0h-8"></path>
     </g>
     <g transform="translate(480,319)">
      <path style="stroke: red; stroke-width: 2; fill: none;" d="M0,0H-48m0,4v-8M0,0H48m0,4v-8M0,0V25m4,0h-8M0,0V-25m4,0h-8"></path>
     </g>
     <g transform="translate(565,282)">
      <path style="stroke: red; stroke-width: 2; fill: none;" d="M0,0H-48m0,4v-8M0,0H48m0,4v-8M0,0V30m4,0h-8M0,0V-30m4,0h-8"></path>
     </g>
     <g transform="translate(651,250)">
      <path style="stroke: red; stroke-width: 2; fill: none;" d="M0,0H-48m0,4v-8M0,0H48m0,4v-8M0,0V35m4,0h-8M0,0V-35m4,0h-8"></path>
     </g>
     <g transform="translate(736,221)">
      <path style="stroke: red; stroke-width: 2; fill: none;" d="M0,0H-48m0,4v-8M0,0H48m0,4v-8M0,0V40m4,0h-8M0,0V-40m4,0h-8"></path>
     </g>
     <g transform="translate(822,196)">
      <path style="stroke: red; stroke-width: 2; fill: none;" d="M0,0H-48m0,4v-8M0,0H48m0,4v-8M0,0V45m4,0h-8M0,0V-45m4,0h-8"></path>
     </g>
     <g transform="translate(907,175)">
      <path style="stroke: red; stroke-width: 2; fill: none;" d="M0,0H-48m0,4v-8M0,0H48m0,4v-8M0,0V50m4,0h-8M0,0V-50m4,0h-8"></path>
     </g>
     <path d="M48,536v10h10v-10zM133,488v10h10v-10zM218,441v10h10v-10zM304,396v10h10v-10zM389,353v10h10v-10zM475,314v10h10v-10zM560,277v10h10v-10zM646,244v10h10v-10zM731,215v10h10v-10zM817,191v10h10v-10zM902,170v10h10v-10z" style="stroke: cyan; fill: cyan;"></path>
    </g>
   </svg>
   <g>
    <g transform="translate(0,640)">
     <path d="M0,0h960M0,-24V0M24,-12V0M48,-12V0M72,-12V0M96,-24V0M120,-12V0M144,-12V0M168,-12V0M192,-24V0M216,-12V0M240,-12V0M264,-12V0M288,-24V0M312,-12V0M336,-12V0M360,-12V0M384,-24V0M408,-12V0M432,-12V0M456,-12V0M480,-24V0M504,-12V0M528,-12V0M552,-12V0M576,-24V0M600,-12V0M624,-12V0M648,-12V0M672,-24V0M696,-12V0M720,-12V0M744,-12V0M768,-24V0M792,-12V0M816,-12V0M840,-12V0M864,-24V0M888,-12V0M912,-12V0M936,-12V0M960,-24V0" style="stroke: black; stroke-width: 1;"></path>
     <g font-family="Arial" font-size="28" space="preserve" fill="black" text-anchor="middle">
      <text dy=".8em" transform="translate(0,6)">
       -10
      </text>
      <text dy=".8em" transform="translate(96,6)">
       -8
      </text>
      <text dy=".8em" transform="translate(192,6)">
       -6
      </text>
      <text dy=".8em" transform="translate(288,6)">
       -4
      </text>
      <text dy=".8em" transform="translate(384,6)">
       -2
      </text>
      <text dy=".8em" transform="translate(480,6)">
       0
      </text>
      <text dy=".8em" transform="translate(576,6)">
       2
      </text>
      <text dy=".8em" transform="translate(672,6)">
       4
      </text>
      <text dy=".8em" transform="translate(768,6)">
       6
      </text>
      <text dy=".8em" transform="translate(864,6)">
       8
      </text>
      <text dy=".8em" transform="translate(960,6)">
       10
      </text>
     </g>
    </g>
    <g>
     <path d="M0,0v640M36,640H0M18,615H0M18,590H0M18,565H0M36,540H0M18,515H0M18,490H0M18,466H0M36,441H0M18,416H0M18,391H0M18,366H0M36,341H0M18,316H0M18,291H0M18,266H0M36,241H0M18,216H0M18,191H0M18,167H0M36,142H0M18,117H0M18,92H0M18,67H0M36,42H0M18,17H0" style="stroke: black; stroke-width: 1;"></path>
     <g font-family="Arial" font-size="28" space="preserve" fill="black" text-anchor="end">
      <text dy=".4em" transform="translate(-4,640)">
       0
      </text>
      <text dy=".4em" transform="translate(-4,540)">
       200
      </text>
      <text dy=".4em" transform="translate(-4,441)">
       400
      </text>
      <text dy=".4em" transform="translate(-4,341)">
       600
      </text>
      <text dy=".4em" transform="translate(-4,241)">
       800
      </text>
      <text dy=".4em" transform="translate(-4,142)">
       1000
      </text>
      <text dy=".4em" transform="translate(-4,42)">
       1200
      </text>
     </g>
    </g>
   </g>
  </g>
  <g transform="translate(120,80)" font-family="Arial" font-size="15" space="preserve">
   <path d="M0,0H456V160H0Z" style="fill: #f2f2f2; stroke: black; stroke-width: 1;"></path>
   <text fill="black" text-anchor="start" dy=".4em" transform="translate(114,24)">
    The Legend Title
   </text>
   <path d="M14,47v30h86v-30z" style="fill: url(#pat_3003_416); stroke: #000099; stroke-width: 1;"></path>
   <text fill="black" text-anchor="start" dy=".4em" transform="translate(114,62)">
    Histogram filled with random numbers
   </text>
   <path d="M14,99H100" style="stroke: blue; stroke-width: 4;"></path>
   <g transform="translate(114,104) scale(0.442)">
    <text fill="black" font-size="34">
     Function abs(
    </text>
    <g transform="translate(208)">
     <text fill="black" font-size="34" transform="translate(0,-20)">
      sin(x)
     </text>
     <path style="stroke: black; stroke-width: 2; fill: none;" d="M0,-12h82"></path>
     <text fill="black" font-size="34" transform="translate(34,21)">
      x
     </text>
    </g>
    <text fill="black" font-size="34" x="293">
     )
    </text>
   </g>
   <path d="M14,136H100" style="stroke: red; stroke-width: 2;"></path>
   <path d="M57,122V152" style="stroke: red; stroke-width: 2;"></path>
   <path d="M52,131v10h10v-10z" style="stroke: cyan; fill: cyan;"></path>
   <text fill="black" text-anchor="start" dy=".4em" transform="translate(114,137)">
    Graph with error bars
   </text>
  </g>
  <g transform="translate(382,4)" font-family="Arial" font-size="40" space="preserve">
   <text fill="black" text-anchor="middle" dy=".4em" transform="translate(219,25)">
    TLegend Example
   </text>
  </g>
 </g>
</svg>
